public/feature2.svg

<svg width="119" height="87" viewBox="0 0 119 87" fill="none" xmlns="http://www.w3.org/2000/svg">
<g clip-path="url(#clip0_191_31)">
<path d="M46.6173 18.3836C51.7619 18.3836 55.9324 14.2131 55.9324 9.06847C55.9324 3.92392 51.7619 -0.246582 46.6173 -0.246582C41.4727 -0.246582 37.3022 3.92392 37.3022 9.06847C37.3022 14.2131 41.4727 18.3836 46.6173 18.3836Z" fill="#6F99A3"/>
<path d="M88.7954 66.8493C98.7214 66.8493 106.768 58.8027 106.768 48.8767C106.768 38.9507 98.7214 30.9041 88.7954 30.9041C78.8694 30.9041 70.8228 38.9507 70.8228 48.8767C70.8228 58.8027 78.8694 66.8493 88.7954 66.8493Z" fill="#44C4E8" fill-opacity="0.6"/>
</g>
<path d="M73.7286 18.1791C73.5488 18.3592 73.3353 18.5021 73.1002 18.5995C72.8652 18.697 72.6132 18.7472 72.3588 18.7472C72.1043 18.7472 71.8523 18.697 71.6173 18.5995C71.3822 18.5021 71.1687 18.3592 70.9889 18.1791C70.4577 17.6462 69.8262 17.2237 69.1309 16.9361C68.4355 16.6484 67.6901 16.5013 66.9376 16.5032C65.3489 16.5032 63.9287 17.1406 62.8863 18.1791C62.7064 18.359 62.4929 18.5017 62.2578 18.5991C62.0228 18.6964 61.7709 18.7465 61.5165 18.7465C61.0027 18.7465 60.51 18.5424 60.1467 18.1791C59.9668 17.9992 59.8241 17.7857 59.7268 17.5506C59.6294 17.3156 59.5793 17.0637 59.5793 16.8093C59.5793 16.2955 59.7834 15.8028 60.1467 15.4395C61.0379 14.5471 62.0966 13.8393 63.2619 13.3569C64.4273 12.8745 65.6764 12.6268 66.9376 12.6282C68.1989 12.6268 69.448 12.8745 70.6133 13.3569C71.7787 13.8393 72.8373 14.5471 73.7286 15.4395C74.0918 15.8028 74.2958 16.2955 74.2958 16.8093C74.2958 17.3231 74.0918 17.8158 73.7286 18.1791ZM51.2323 16.3288C49.5213 17.3294 47.9734 18.5859 46.6423 20.0546L46.6404 20.0566C45.3059 21.5317 44.2061 23.2033 43.3796 25.0127C42.5317 26.8698 41.9855 28.8502 41.7618 30.8794C41.7338 31.1323 41.7559 31.3883 41.8268 31.6327C41.8977 31.877 42.0161 32.105 42.1751 32.3037C42.3342 32.5023 42.5308 32.6676 42.7537 32.7903C42.9767 32.9129 43.2216 32.9904 43.4745 33.0184C43.7274 33.0464 43.9834 33.0243 44.2277 32.9534C44.4721 32.8825 44.7001 32.7641 44.8987 32.6051C45.0974 32.446 45.2627 32.2494 45.3853 32.0265C45.508 31.8035 45.5855 31.5586 45.6135 31.3057C45.7929 29.6854 46.2292 28.104 46.9058 26.6208C48.234 23.7136 50.4278 21.2877 53.1872 19.6749C53.4069 19.5465 53.5992 19.3761 53.753 19.1735C53.9069 18.9708 54.0193 18.7398 54.0839 18.4937C54.1485 18.2476 54.164 17.9911 54.1295 17.739C54.095 17.4869 54.0111 17.2441 53.8828 17.0244C53.7544 16.8047 53.584 16.6124 53.3813 16.4585C53.1787 16.3047 52.9477 16.1922 52.7016 16.1276C52.2045 15.9972 51.676 16.0696 51.2323 16.3288ZM80.5001 37.9687C80.5001 37.4549 80.7043 36.9621 81.0676 36.5987C81.431 36.2354 81.9238 36.0312 82.4376 36.0312C82.9515 36.0312 83.4443 36.2354 83.8077 36.5987C84.171 36.9621 84.3751 37.4549 84.3751 37.9687C84.3725 39.7167 83.6937 41.396 82.481 42.6549C81.2683 43.9138 79.6157 44.6548 77.869 44.7229C78.3011 45.6122 78.5626 46.6003 78.5626 47.6562C78.5626 48.1701 78.3585 48.6629 77.9952 49.0263C77.6318 49.3896 77.139 49.5937 76.6251 49.5937C76.1113 49.5937 75.6185 49.3896 75.2551 49.0263C74.8918 48.6629 74.6876 48.1701 74.6876 47.6562C74.6866 46.8858 74.3801 46.1472 73.8353 45.6023C73.2905 45.0575 72.5519 44.751 71.7814 44.75H59.8038C59.2899 44.75 58.7971 44.5459 58.4337 44.1825C58.0704 43.8192 57.8663 43.3263 57.8663 42.8125C57.8663 42.2986 58.0704 41.8058 58.4337 41.4425C58.7971 41.0791 59.2899 40.875 59.8038 40.875H64.0314C64.8017 40.8735 65.54 40.5668 66.0847 40.0221C66.6294 39.4774 66.9361 38.7391 66.9376 37.9687C66.9376 37.4549 67.1418 36.9621 67.5051 36.5987C67.8685 36.2354 68.3613 36.0312 68.8751 36.0312C69.389 36.0312 69.8818 36.2354 70.2452 36.5987C70.6085 36.9621 70.8126 37.4549 70.8126 37.9687C70.8126 39.0131 70.5569 39.9915 70.1345 40.875H77.5939C78.3642 40.8735 79.1025 40.5668 79.6472 40.0221C80.1919 39.4774 80.4986 38.7391 80.5001 37.9687Z" fill="black" fill-opacity="0.7"/>
<path d="M96 36.4401C96 35.2233 95.9128 34.0453 95.7791 32.9022C94.0218 17.7548 81.1742 6.00388 65.5599 6H63.1729C47.0587 6.00194 34.0019 19.0587 34 35.1729C34 36.685 34.2978 38.1824 34.8765 39.5794C35.4552 40.9764 36.3033 42.2457 37.3725 43.315C39.5319 45.4744 42.4607 46.6875 45.5146 46.6875H47.919C48.5706 49.444 50.1332 51.8999 52.354 53.658C54.5748 55.416 57.3238 56.3733 60.1562 56.375H73.9202L79.9575 62.4122C80.1607 62.6152 80.4195 62.7534 80.7012 62.8094C80.9829 62.8653 81.2749 62.8366 81.5403 62.7267C81.8057 62.6168 82.0325 62.4307 82.1922 62.192C82.3519 61.9533 82.4372 61.6726 82.4375 61.3854V56.2142C85.4157 55.8434 88.2219 54.6146 90.5143 52.6776C92.8067 50.7405 94.4864 48.1787 95.349 45.3041C95.6261 44.378 95.7849 43.4015 95.8857 42.4076L95.8915 42.3921C95.9458 42.2138 96 42.0375 96 41.8438C96 41.7256 95.9923 41.6074 95.9845 41.4911L95.9709 41.2683C95.9709 41.2063 95.9787 41.1463 95.9845 41.0881C95.9923 41.0164 96 40.9467 96 40.875V36.4401ZM91.6367 44.1978C90.9214 46.5961 89.4512 48.6994 87.4447 50.1952C85.4383 51.691 83.0027 52.4993 80.5 52.5H60.1562C57.9819 52.4998 55.8862 51.6868 54.2806 50.2206C52.675 48.7544 51.6754 46.741 51.4782 44.5756L51.4666 44.4516C51.5313 41.9352 52.5781 39.5441 54.383 37.7895C56.188 36.0349 58.6078 35.0561 61.125 35.0625C61.6389 35.0625 62.1317 34.8584 62.495 34.495C62.8584 34.1317 63.0625 33.6389 63.0625 33.125C63.0625 32.6111 62.8584 32.1183 62.495 31.755C62.1317 31.3916 61.6389 31.1875 61.125 31.1875C58.8494 31.1845 56.61 31.757 54.615 32.8518C54.2334 31.9961 53.7004 31.2164 53.0417 30.5501C52.6785 30.1868 52.1857 29.9827 51.6719 29.9827C51.1582 29.9827 50.6654 30.1868 50.3021 30.5501C49.9388 30.9134 49.7347 31.4061 49.7347 31.9199C49.7347 32.4337 49.9388 32.9264 50.3021 33.2897C50.8524 33.8419 51.2263 34.5491 51.3678 35.3415C49.3968 37.3868 48.1197 40.0007 47.7175 42.8125H45.5146C44.5108 42.814 43.5167 42.617 42.5893 42.233C41.662 41.8489 40.8197 41.2854 40.1109 40.5747C39.4005 39.8661 38.8373 39.0241 38.4536 38.0971C38.0698 37.17 37.8732 36.1763 37.875 35.1729C37.875 28.1805 40.7037 21.8681 45.284 17.284C47.6303 14.931 50.4187 13.065 53.4888 11.7935C56.5588 10.522 59.85 9.86998 63.1729 9.875H65.5599C78.5218 9.87112 89.2866 19.175 91.6213 31.4568C89.4862 29.3711 86.7593 27.9955 83.8131 27.5179C84.7877 25.7315 85.3438 23.6797 85.3438 21.5C85.3438 20.9861 85.1396 20.4933 84.7763 20.13C84.4129 19.7666 83.9201 19.5625 83.4062 19.5625C82.8924 19.5625 82.3996 19.7666 82.0362 20.13C81.6729 20.4933 81.4688 20.9861 81.4688 21.5C81.4708 22.6453 81.2462 23.7796 80.8079 24.8377C80.3696 25.8958 79.7264 26.8567 78.9151 27.6651C78.1067 28.4764 77.1458 29.1196 76.0877 29.5579C75.0296 29.9962 73.8953 30.2208 72.75 30.2188C72.2361 30.2188 71.7433 30.4229 71.38 30.7862C71.0166 31.1496 70.8125 31.6424 70.8125 32.1562C70.8125 32.6701 71.0166 33.1629 71.38 33.5263C71.7433 33.8896 72.2361 34.0938 72.75 34.0938C75.7454 34.0956 78.6425 33.0247 80.9166 31.0751L80.9476 31.0848C81.1151 31.1452 81.2908 31.1798 81.4688 31.1875C84.4176 31.1875 87.0701 32.3771 89.0037 34.3088C90.8602 36.166 91.962 38.6457 92.0959 41.2683C92.0684 42.2604 91.9141 43.2449 91.6367 44.1978Z" fill="black" fill-opacity="0.7"/>
<defs>
<clipPath id="clip0_191_31">
<rect width="119" height="87" fill="white"/>
</clipPath>
</defs>
</svg>

<svg xmlns="http://www.w3.org/2000/svg" width="119" height="87" fill="none"><g clip-path="url(#a)"><path fill="#6F99A3" d="M46.617 18.384a9.315 9.315 0 1 0 0-18.63 9.315 9.315 0 0 0 0 18.63Z"/><path fill="#44C4E8" fill-opacity=".6" d="M88.795 66.85c9.926 0 17.973-8.047 17.973-17.973 0-9.926-8.047-17.973-17.973-17.973-9.926 0-17.972 8.047-17.972 17.973 0 9.926 8.046 17.972 17.972 17.972Z"/></g><path fill="#000" fill-opacity=".7" d="M73.729 18.18a1.934 1.934 0 0 1-2.74 0 5.7 5.7 0 0 0-4.051-1.677 5.7 5.7 0 0 0-4.052 1.676 1.937 1.937 0 1 1-2.74-2.74 9.583 9.583 0 0 1 6.792-2.81 9.582 9.582 0 0 1 6.79 2.81 1.937 1.937 0 0 1 0 2.74Zm-22.497-1.851a19.437 19.437 0 0 0-4.59 3.726l-.002.002a19.406 19.406 0 0 0-3.26 4.956 19.188 19.188 0 0 0-1.618 5.866 1.938 1.938 0 0 0 3.852.427c.179-1.62.615-3.202 1.292-4.685a15.511 15.511 0 0 1 6.281-6.946 1.938 1.938 0 0 0-1.955-3.346ZM80.5 37.969a1.938 1.938 0 0 1 3.875 0 6.77 6.77 0 0 1-6.506 6.754c.432.89.694 1.877.694 2.933a1.938 1.938 0 1 1-3.875 0 2.91 2.91 0 0 0-2.907-2.906H59.804a1.938 1.938 0 1 1 0-3.875h4.227a2.912 2.912 0 0 0 2.907-2.906 1.938 1.938 0 0 1 3.875 0 6.71 6.71 0 0 1-.678 2.906h7.459a2.912 2.912 0 0 0 2.906-2.906Z"/><path fill="#000" fill-opacity=".7" d="M96 36.44c0-1.217-.087-2.395-.22-3.538C94.021 17.755 81.173 6.004 65.56 6h-2.387C47.059 6.002 34.002 19.059 34 35.173a11.514 11.514 0 0 0 11.515 11.514h2.404a12.582 12.582 0 0 0 12.237 9.688H73.92l6.037 6.037a1.453 1.453 0 0 0 2.48-1.027v-5.17a15.477 15.477 0 0 0 12.912-10.91c.277-.927.436-1.904.537-2.897l.005-.016c.055-.178.109-.355.109-.548 0-.118-.008-.237-.016-.353l-.013-.223c0-.062.008-.122.013-.18.008-.072.016-.141.016-.213V36.44Zm-4.363 7.758A11.624 11.624 0 0 1 80.5 52.5H60.156a8.715 8.715 0 0 1-8.678-7.924l-.011-.124a9.637 9.637 0 0 1 9.658-9.39 1.937 1.937 0 1 0 0-3.874 13.495 13.495 0 0 0-6.51 1.664 7.783 7.783 0 0 0-1.573-2.302 1.937 1.937 0 1 0-2.74 2.74c.55.552.924 1.26 1.066 2.052a13.527 13.527 0 0 0-3.65 7.47h-2.203a7.617 7.617 0 0 1-5.404-2.237 7.61 7.61 0 0 1-2.236-5.402c0-6.993 2.829-13.305 7.409-17.889a25.209 25.209 0 0 1 17.889-7.409h2.387c12.962-.004 23.727 9.3 26.061 21.582a14.493 14.493 0 0 0-7.808-3.94 12.533 12.533 0 0 0 1.53-6.017 1.938 1.938 0 0 0-3.874 0 8.682 8.682 0 0 1-2.554 6.165 8.681 8.681 0 0 1-6.165 2.554 1.937 1.937 0 1 0 0 3.875 12.536 12.536 0 0 0 8.167-3.019l.03.01c.168.06.344.095.522.102 2.949 0 5.601 1.19 7.535 3.122a10.61 10.61 0 0 1 3.092 6.96 11.634 11.634 0 0 1-.46 2.929Z"/><defs><clipPath id="a"><path fill="#fff" d="M0 0h119v87H0z"/></clipPath></defs></svg>
